assets/alina_top.svg

<?xml version="1.0" encoding="UTF-8" standalone="no"?>
<svg width="46px" height="66px" viewBox="0 0 46 66" version="1.1" xmlns="http://www.w3.org/2000/svg" xmlns:xlink="http://www.w3.org/1999/xlink" xmlns:sketch="http://www.bohemiancoding.com/sketch/ns">
    <!-- Generator: Sketch 3.3.1 (12002) - http://www.bohemiancoding.com/sketch -->
    <title>alina_top</title>
    <desc>Created with Sketch.</desc>
    <defs></defs>
    <g id="Page-1" stroke="none" stroke-width="1" fill="none" fill-rule="evenodd" sketch:type="MSPage">
        <g id="alina_top" sketch:type="MSLayerGroup" fill="#000000">
            <path d="M15.1412264,65.2848026 C13.5,65.2848026 12.1695283,63.9454605 12.1695283,62.2913816 L12.1695283,53.3111184 L3.39367925,53.3111184 C2.28566038,53.3111184 1.27018868,52.6910526 0.758207547,51.7015132 C0.246226415,50.7119737 0.322641509,49.5180263 0.956886792,48.60375 L20.6295283,20.2346711 C21.1856604,19.4332895 22.095,18.9560526 23.0654717,18.9560526 C24.0367925,18.9560526 24.9461321,19.4332895 25.5022642,20.2346711 L45.1749057,48.60375 C45.8091509,49.5180263 45.885566,50.7119737 45.3735849,51.7015132 C44.8616038,52.6910526 43.8461321,53.3111184 42.7381132,53.3111184 L33.9622642,53.3111184 L33.9622642,62.2913816 C33.9622642,63.9454605 32.6317925,65.2848026 30.990566,65.2848026 L15.1412264,65.2848026 Z M18.1129245,59.2988158 L28.0188679,59.2988158 L28.0188679,50.3185526 C28.0188679,48.6644737 29.3493396,47.3242763 30.990566,47.3242763 L37.0375472,47.3242763 L23.0654717,27.1759868 L9.09424528,47.3242763 L15.1412264,47.3242763 C16.7833019,47.3242763 18.1129245,48.6644737 18.1129245,50.3185526 L18.1129245,59.2988158 L18.1129245,59.2988158 Z" id="Fill-1" sketch:type="MSShapeGroup"></path>
            <path d="M36.0568868,27.0733553 L23.0654717,8.33881579 L10.0749057,27.0733553 C9.13415094,28.4280921 7.28150943,28.7590789 5.93660377,27.8123026 C4.59169811,26.8663816 4.26226415,25.0001974 5.20216981,23.6446053 L20.6295283,1.3975 C21.1856604,0.596118421 22.095,0.118881579 23.0654717,0.118881579 C24.0367925,0.118881579 24.9461321,0.596118421 25.5022642,1.3975 L40.9296226,23.6446053 C41.8695283,25.0001974 41.5400943,26.8663816 40.1951887,27.8123026 C39.6764151,28.1775 39.0829245,28.3528289 38.4953774,28.3528289 C37.5580189,28.3528289 36.6350943,27.9063816 36.0568868,27.0733553 Z" id="Fill-2" sketch:type="MSShapeGroup"></path>
        </g>
    </g>
</svg>

<?xml version="1.0" encoding="utf-8"?>
<!-- Generator: Adobe Illustrator 18.0.0, SVG Export Plug-In . SVG Version: 6.00 Build 0)  -->
<!DOCTYPE svg PUBLIC "-//W3C//DTD SVG 1.1//EN" "http://www.w3.org/Graphics/SVG/1.1/DTD/svg11.dtd">
<svg version="1.1" id="Layer_1" xmlns:sketch="http://www.bohemiancoding.com/sketch/ns"
	 xmlns="http://www.w3.org/2000/svg" xmlns:xlink="http://www.w3.org/1999/xlink" x="0px" y="0px" viewBox="0 18.5 46 47.5"
	 enable-background="new 0 18.5 46 47.5" xml:space="preserve">
<title>alina_top</title>
<desc>Created with Sketch.</desc>
<g id="Page-1" sketch:type="MSPage">
	<g id="alina_top" sketch:type="MSLayerGroup">
		<path id="Fill-1" sketch:type="MSShapeGroup" d="M15.1,65.3c-1.6,0-3-1.3-3-3v-9H3.4c-1.1,0-2.1-0.6-2.6-1.6
			c-0.5-1-0.4-2.2,0.2-3.1l19.7-28.4c0.6-0.8,1.5-1.3,2.4-1.3c1,0,1.9,0.5,2.4,1.3l19.7,28.4c0.6,0.9,0.7,2.1,0.2,3.1
			c-0.5,1-1.5,1.6-2.6,1.6H34v9c0,1.7-1.3,3-3,3H15.1z M18.1,59.3H28v-9c0-1.7,1.3-3,3-3h6l-14-20.1l-14,20.1h6c1.6,0,3,1.3,3,3
			V59.3L18.1,59.3z"/>
	</g>
</g>
</svg>
